X:83
T: DAS SCHOENSTE LEBEN
N: B0570
O: Europa, Mitteleuropa, Deutschland
R: Staende -, Soldaten - Lied, national; Liebes - Lied
M: 3/4
L: 1/16
K: F
C2 | F3GA2B2c2d2 | c8
A4 | c3dc2B2A2G2 | F4z4
F4 | D3EF4D4 | E4A4z2
G2 | F3GA4F4 | G4c4z2
B2 | A3AA2A2G3A | B8
B4 | =B3BB2B2A2B2 | c8
B4 | A6c2A2c2f3e | e4d4z4 |
B4 | G6B2G2B2e2d2 | d4c4z4 |
A4 | F6A2F2A2d3c | c4B4z4 |
^F4 | A4G4z4E4 | G4F4z6

@@@ Tune index: 2301
